assets/icons/navigation/tab_orderentry_icon_active.svg

<svg fill="none" height="20" viewBox="0 0 20 20" width="20" xmlns="http://www.w3.org/2000/svg" xmlns:xlink="http://www.w3.org/1999/xlink"><linearGradient id="a" gradientUnits="userSpaceOnUse" x1="26.4939" x2="1.98124" y1="16.5189" y2="5.48106"><stop offset="0" stop-color="#1c9cfc"/><stop offset="1" stop-color="#4cdfff"/></linearGradient><path clip-rule="evenodd" d="m0 2.06349c0-1.115046.862523-2.06349 1.97995-2.06349h16.04015c1.1174 0 1.9799.948444 1.9799 2.06349v15.87301c0 1.1151-.8625 2.0635-1.9799 2.0635h-16.04015c-1.117427 0-1.97995-.9484-1.97995-2.0635zm14.4422 3.86561h1.8223c.0037 0 .0068.00028.0092.00067.0027.00042.0043.00297.0036.00552l-.0357.11436-.0724-.00485.0125-.04008h-.6107zm1.1288.07562.5982.04008-1.5524 4.9715c-.0499.1219-.1421.1779-.2334.1779h-6.9732l-2.17735-6.52783-.00612-.01463c-.14832-.35438-.51234-.65174-1.0052-.65174h-1.84845c-.20608 0-.37314.16608-.37314.37096s.16706.37096.37314.37096h1.84845c.09887 0 .19294.05501.24314.16538l2.66303 7.9833c.1212.4146.56071.6831 1.0167.6831h6.7904c.2061 0 .3732-.1661.3732-.3709 0-.2049-.1671-.371-.3732-.371h-6.7904c-.13306 0-.21838-.081-.23327-.1344l-.00173-.0066-.23921-.7171h6.71321c.4833 0 .8357-.3194.9781-.6925l.0035-.009 1.6043-5.13718.0012-.00431c.1423-.48906-.235-.90546-.7003-.90546h-10.07739c-.21651 0-.39203.17449-.39203.38974 0 .21524.17552.38973.39203.38973zm-13.41717-1.66224c-.00121.00932-.00184.01883-.00184.02848 0 .01603.00173.03167.00501.04673-.00279-.01625-.00424-.03295-.00424-.04999 0-.00849.00036-.0169.00107-.02522zm6.16232 9.99312c-.7476 0-1.35521.5956-1.35521 1.3322s.60761 1.3322 1.35521 1.3322c.74761 0 1.35522-.5956 1.35522-1.3322s-.60761-1.3322-1.35522-1.3322zm-.56357 1.3322c0-.3044.25146-.5528.56357-.5528s.56357.2484.56357.5528-.25146.5527-.56357.5527-.56357-.2483-.56357-.5527zm6.11252-.6283c-.3532 0-.6396.2813-.6396.6283 0 .3471.2864.6284.6396.6284.3533 0 .6396-.2813.6396-.6284 0-.347-.2863-.6283-.6396-.6283zm-.0001-.7039c-.7476 0-1.3552.5956-1.3552 1.3322s.6076 1.3322 1.3552 1.3322 1.3552-.5956 1.3552-1.3322-.6076-1.3322-1.3552-1.3322z" fill="url(#a)" fill-rule="evenodd"/></svg>

<svg width="20" height="20" viewBox="0 0 20 20" fill="none" xmlns="http://www.w3.org/2000/svg">
<path fill-rule="evenodd" clip-rule="evenodd" d="M0 2.06349C0 0.948444 0.862523 0 1.97995 0H18.0201C19.1375 0 20 0.948444 20 2.06349V17.9365C20 19.0516 19.1375 20 18.0201 20H1.97995C0.862523 20 0 19.0516 0 17.9365V2.06349ZM14.4422 5.9291H16.2645C16.2682 5.9291 16.2713 5.92938 16.2737 5.92977C16.2764 5.93019 16.278 5.93274 16.2773 5.93529L16.2416 6.04965L16.1692 6.0448L16.1817 6.00472H15.571L14.4422 5.9291ZM15.571 6.00472L16.1692 6.0448L14.6168 11.0163C14.5669 11.1382 14.4747 11.1942 14.3834 11.1942H7.4102L5.23285 4.66637L5.22673 4.65174C5.07841 4.29736 4.71439 4 4.22153 4H2.37308C2.167 4 1.99994 4.16608 1.99994 4.37096C1.99994 4.57584 2.167 4.74192 2.37308 4.74192H4.22153C4.3204 4.74192 4.41447 4.79693 4.46467 4.9073L7.1277 12.8906C7.2489 13.3052 7.68841 13.5737 8.1444 13.5737H14.9348C15.1409 13.5737 15.308 13.4076 15.308 13.2028C15.308 12.9979 15.1409 12.8318 14.9348 12.8318H8.1444C8.01134 12.8318 7.92602 12.7508 7.91113 12.6974L7.9094 12.6908L7.67019 11.9737H14.3834C14.8667 11.9737 15.2191 11.6543 15.3615 11.2812L15.365 11.2722L16.9693 6.13502L16.9705 6.13071C17.1128 5.64165 16.7355 5.22525 16.2702 5.22525H6.19281C5.9763 5.22525 5.80078 5.39974 5.80078 5.61499C5.80078 5.83023 5.9763 6.00472 6.19281 6.00472H15.571ZM2.15383 4.34248C2.15262 4.3518 2.15199 4.36131 2.15199 4.37096C2.15199 4.38699 2.15372 4.40263 2.157 4.41769C2.15421 4.40144 2.15276 4.38474 2.15276 4.3677C2.15276 4.35921 2.15312 4.3508 2.15383 4.34248ZM8.31615 14.3356C7.56855 14.3356 6.96094 14.9312 6.96094 15.6678C6.96094 16.4044 7.56855 17 8.31615 17C9.06376 17 9.67137 16.4044 9.67137 15.6678C9.67137 14.9312 9.06376 14.3356 8.31615 14.3356ZM7.75258 15.6678C7.75258 15.3634 8.00404 15.115 8.31615 15.115C8.62826 15.115 8.87972 15.3634 8.87972 15.6678C8.87972 15.9722 8.62826 16.2205 8.31615 16.2205C8.00404 16.2205 7.75258 15.9722 7.75258 15.6678ZM13.8651 15.0395C13.5119 15.0395 13.2255 15.3208 13.2255 15.6678C13.2255 16.0149 13.5119 16.2962 13.8651 16.2962C14.2184 16.2962 14.5047 16.0149 14.5047 15.6678C14.5047 15.3208 14.2184 15.0395 13.8651 15.0395ZM13.865 14.3356C13.1174 14.3356 12.5098 14.9312 12.5098 15.6678C12.5098 16.4044 13.1174 17 13.865 17C14.6126 17 15.2202 16.4044 15.2202 15.6678C15.2202 14.9312 14.6126 14.3356 13.865 14.3356Z" fill="url(#paint0_linear_15:1936)"/>
<defs>
<linearGradient id="paint0_linear_15:1936" x1="26.4939" y1="16.5189" x2="1.98124" y2="5.48106" gradientUnits="userSpaceOnUse">
<stop stop-color="#1C9CFC"/>
<stop offset="1" stop-color="#4CDFFF"/>
</linearGradient>
</defs>
</svg>
